X: 1
T: Ravit K\"apyl\"ass\"a  [A]
C: Otto Hotakainen
Z: 2013 John Chambers <jc:trillian.mit.edu>
M: 2/4
L: 1/16
K: A
|:\
"A"E2CE A-AEA | cAce aefe | E2Ac .e2fe | "E7"e2G2 G4 |
"E"E-EB,E G2EG | BGBe g2ga | baga bagf | "A"e2c2 c4 |
"A"E2CE A-AEA | cAce aefe | E2Ac .e2ag | "D"agf2 "(Bm)"f4 |
"E"b^abc' bgfe | "A"agab agfg | "E"efgf edcB | "(A)"cBAG "A"A4 :|
|:\
"A"agag "(D)"f2ze | "A"e6 c2 | cBcB A2zA | "D"F2[A2F2] [A4F4] |
"E"EEE2 G2G2 | BBB2 g3f | e2d2 c2B2 |1-3 "A"A-AA2 cAce :|4 "A"A8 |]

%%sep 1 1 500

